!!!COM: Louise Reichardt
!!!CNT: Deutsch
!!!TXO: Deutsch
!!!OTL: Fru2hlingslied
!!!LYR: Novalis (Georg Friedrich Freiherr von Hardenberg)
!!!OPR: 
!!!OPS: No opus information available
!!!ONM: No. 22
!!!ENC: Ben Fuhrman
!!!YOR: Louise Reichardt: Songs
!!!YOR: New York, Da Capo Press, 1981
!!!ODT: 1800 - 1826
!!NB: Only vocal melody encoded.
!!NB: First instance of melodic material only encoded.
!!created: 2/18/10 3:10PM
!!proofed and posted: 2/18/10 3:10PM
**kern	**silbe
*clef G2	*
*k[b-]	*
*M6/8	*
*MM[Lieblich]	*
{8f	{Es
8a	fa2rb-
8b-	-te
=1	=1
4cc	sich
8f	die
4b-	Wie-
8dd	-se
=2	=2
4cc	gru2n,
8r	.
8ff	und
8ee-	um
8dd	die
=3	=3
4cc	Heck-
8dd	-en
4g	sah
8cc	ichs
=4	=4
4a}	blu2hn,}
8r	.
{8a	{Tag-
8a	-ta2g-
8a	-lich
=5	=5
4dd	sah
8dd	ich
4ee	neu-
8ee	-e
=6	=6
8ff	Kra2u-
8ee	-ter
8dd	mild
(8.cc	war
16dd)	|
8cc	die
=7	=7
(8.cc	Luft
16ff)	|
(16ee	der
16dd)	|
4cc	Him-
8cc	-mel
=8	=8
8dd	hei-
8cc}	-ter.}
8r	.
{8cc	{Ich
8cc	wus-
8cc	-ste
=9	=9
4.ee-	nicht
8ee-	wie
8dd	mir
8a	ge-
=10	=10
4b-}	-schah}
8r	.
{8g	{und
8dd	wie
8cc	das
=11	=11
4cc	wur-
8f	-de
4a	was
8g	ich
=12	=12
4f}	sah.}
8r	.
4.r	.
==	==
*-	*-
